X: 143
T: Ayva Dibi Serin Olur Yatmaya
C: Muzaffer Sarısözen
O: Turkey
F: http://compmusic.upf.edu/node/140
N: huzi--turku--aksak--ayva_dibi--
N: makam= huzi
N: form= turku
N: usul= aksak = 9/8
M: 9/8
L: 1/16
K: C _2/4B   
Q: 1/4=216
%%MIDI tuningsystem comma53
e2d2 ^c2_7/8B2 A4 e2d2 e2 | ^c2 _7/8B2B2 A2A4A2 A2A2  | \
w:  ARANAĞME  |   | 
e2d2 ^c2_7/8B2 A4 e2d2 e2 | 
w:  ARANAĞME  | 
^c2 _7/8B2B2 A2A4A2 A2A2  | ^c2d2 e2e2 e4 e4 z2 | \
w:   |  Ay *  *  va  di bi   | 
e2 e6e4f2 e2d2  | 
w:  se rin  o lur   | 
f3e d3^c d8 z2 | ^c2 d2e2 e2e4e4z2  | \
w:  yat *  ma *  ya    |  Kız *  lar  *  ge lir   | 
e6e2 e4 f2e2 d2 | f3ed3^cd8z2  | 
w:  giz li  sak lı   |  bak *  ma *  ya    | 
^c2d2 e4 e4 e4 z2 | e4e4e4f2 e2d2  | \
w:  Al *  tın  is ter   |  ak  ger da na   | 
f3e d3^c d8 z2 | ^c2 d2e4e4e4z2  | 
w:  tak *  ma *  ya    |  Al *  tın  is ter   | 
e4 e4 e4 f2e2 d2 | f3ed3^cd2 e2^f2 g3=f  | \
w:  ak  ger da na   |  tak *  ma *  ya    | 
f3e d^c_7/8B2 A4 e4 d2 | 
w:  Yan *  dım  *  *  sür *  me  | 
d^c _7/8BcB2 A2A8z2  | f3e d^c_7/8B2 A4 e4 d2 | \
w:  lim  *  *  *  gel  *  gel    |  Yan *  dım  *  *  sür *  me  | 
d^c _7/8BcB2 A2A8z2  | 
w:  lim  *  *  *  gel  *  gel    | 
e2d2 ^c2_7/8B2 A4 e2d2 e2 | ^c2 _7/8B2B2 A2A4A2 A2A2  | \
w:  ARANAĞME  |   | 
e2d2 ^c2_7/8B2 A4 e2d2 e2 | 
w:  ARANAĞME  | 
^c2 _7/8B2B2 A2A4A2 A2A2  | ^c2d2 e2e2 e4 e4 z2 | \
w:   |  Ay *  *  va  di bi   | 
e2 e6e4f2 e2d2  | 
w:  se rin  o lur   | 
f3e d3^c d8 z2 | ^c2 d2e2 e2e4e4z2  | \
w:  yat *  ma *  ya    |  Kız *  lar  *  ge lir   | 
e6e2 e4 f2e2 d2 | f3ed3^cd8z2  | 
w:  giz li  sak lı   |  bak *  ma *  ya    | 
^c2d2 e4 e4 e4 z2 | e4e4e4f2 e2d2  | \
w:  Al *  tın  is ter   |  ak  ger da na   | 
f3e d3^c d8 z2 | ^c2 d2e4e4e4z2  | 
w:  tak *  ma *  ya    |  Al *  tın  is ter   | 
e4 e4 e4 f2e2 d2 | f3ed3^cd2 e2^f2 g3=f  | \
w:  ak  ger da na   |  tak *  ma *  ya    | 
f3e d^c_7/8B2 A4 e4 d2 | 
w:  Yan *  dım  *  *  sür *  me  | 
d^c _7/8BcB2 A2A8z2  | f3e d^c_7/8B2 A4 e4 d2 | \
w:  lim  *  *  *  gel  *  gel    |  Yan *  dım  *  *  sür *  me  | 
d^c _7/8BcB2 A2A8z2  | 
w:  lim  *  *  *  gel  *  gel    | 
|


